usr/share/icons/biglinux-icons-material-dark/symbolic/status/state-sync-symbolic.svg

<svg xmlns="http://www.w3.org/2000/svg" viewBox="0 0 22 22">
  <defs id="defs3051">
    <style type="text/css" id="current-color-scheme">
      .ColorScheme-Text {
        color:#232629;
      }
      .ColorScheme-NeutralText {
        color:#f67400;
      }
      </style>
  </defs>
    <path 
        style="fill:currentColor;fill-opacity:1;stroke:none" 
        d="M 11 4 A 6 6 0 0 0 5 10 A 6 6 0 0 0 5.0039062 10.128906 A 4 4 0 0 0 2 14 A 4 4 0 0 0 6 18 L 15 18 A 5 5 0 0 0 20 13 A 5 5 0 0 0 16.757812 8.3242188 A 6 6 0 0 0 11 4 z M 11 5 A 5 5 0 0 1 15.919922 9.1113281 A 4.0000019 4.0000019 0 0 1 19 13 A 4.0000019 4.0000019 0 0 1 15 17 L 6 17 A 2.9999979 2.9999979 0 0 1 3 14 A 2.9999979 2.9999979 0 0 1 6 11 A 2.9999979 2.9999979 0 0 1 6.1074219 11.005859 A 5 5 0 0 1 6 10 A 5 5 0 0 1 11 5 z " 
        class="ColorScheme-Text"/>
  <path
     style="color:#3daee9;fill:currentColor;fill-opacity:1;stroke:none"
     d="M 16 12 C 13.784 12 12 13.784 12 16 C 12 18.216 13.784 20 16 20 C 18.216 20 20 18.216 20 16 C 20 13.784 18.216 12 16 12 z "
     id="path8" />
  <path
     style="fill:#ffffff;fill-opacity:1;stroke:none;stroke-linecap:butt;stroke-linejoin:round"
     d="M 15.949219 13.003906 A 3 3 0 0 0 14.265625 13.558594 L 14.984375 14.277344 A 2 2 0 0 1 17.414062 14.585938 A 2 2 0 0 1 17.720703 17.013672 L 18.445312 17.738281 A 3 3 0 0 0 18.121094 13.878906 A 3 3 0 0 0 15.949219 13.003906 z M 13.554688 14.261719 A 3 3 0 0 0 13.878906 18.121094 A 3 3 0 0 0 17.734375 18.441406 L 17.015625 17.722656 A 2 2 0 0 1 14.585938 17.414062 A 2 2 0 0 1 14.279297 14.986328 L 13.554688 14.261719 z "
     id="path10" />
</svg>

<svg xmlns="http://www.w3.org/2000/svg" viewBox="0 0 22 22">
<defs id="defs3051">
<style id="current-color-scheme" type="text/css">
.ColorScheme-Contrast{color:#232629}
</style>
</defs>
<path d="M11 4a6 6 0 0 0-6 6l.004.129A4 4 0 0 0 2 14a4 4 0 0 0 4 4h9a5 5 0 0 0 5-5 5 5 0 0 0-3.242-4.676A6 6 0 0 0 11 4m0 1a5 5 0 0 1 4.92 4.111A4 4 0 0 1 19 13a4 4 0 0 1-4 4H6a3 3 0 0 1-3-3 3 3 0 0 1 3-3l.107.006A5 5 0 0 1 6 10a5 5 0 0 1 5-5" class="ColorScheme-Contrast" style="fill:currentColor;fill-opacity:1;stroke:none"/>
<path id="path8" d="M16 12c-2.216 0-4 1.784-4 4s1.784 4 4 4 4-1.784 4-4-1.784-4-4-4" style="color:#3daee9;fill:currentColor;fill-opacity:1;stroke:none"/>
<path id="path10" d="M15.95 13.004a3 3 0 0 0-1.684.555l.718.718a2 2 0 0 1 2.43.309 2 2 0 0 1 .307 2.428l.724.724a3 3 0 0 0-.324-3.86 3 3 0 0 0-2.172-.874m-2.395 1.258a3 3 0 0 0 .324 3.86 3 3 0 0 0 3.855.32l-.718-.72a2 2 0 0 1-2.43-.308 2 2 0 0 1-.307-2.428z" style="fill:#fff;fill-opacity:1;stroke:none;stroke-linecap:butt;stroke-linejoin:round"/>
</svg>
